X:16
T:The Grenadiers March
S:Ashworth's Instructor, pp. 33-34
M:2/4
%%MIDI program 72
%%MIDI transpose 8
L:1/8
K:G
A|G>AB>c|d2de|d2g2|f3g|e3e|d2d2|A>Bc>d|B3A|G>AB>c|d2d2|
a>gf>e|d3 B/c/|d3 B/d/|c3 A/c/|B>A G>B|A2 DB/c/|d3 B/d/|c3 A/c/|B>A G>B|
A3 (3(d/e/f/)|g3e|d2g2|B2 cA|G3::e|d>ef>g|a>gf>e|d2e^c|d3e|d>ef>g|
a>gf>e|d2e^c|d3e|d>ef>g|a2c2|d>cB>A|B3d|e3g|d2g2|
B>AG>B|AD3|e3g|d2g2|B>AG>B|A3f|g3e|B2g2|B2cA|G3:|]

